packages/bezier-icons/icons/badge.svg

<svg width="24" height="24" viewBox="0 0 24 24" fill="none" xmlns="http://www.w3.org/2000/svg">
<path fill-rule="evenodd" clip-rule="evenodd" d="M12 3C8.41015 3 5.5 5.91015 5.5 9.5C5.5 13.0899 8.41015 16 12 16C15.5899 16 18.5 13.0899 18.5 9.5C18.5 5.91015 15.5899 3 12 3ZM16 17.0019C18.6779 15.5711 20.5 12.7483 20.5 9.5C20.5 4.80558 16.6944 1 12 1C7.30558 1 3.5 4.80558 3.5 9.5C3.5 12.7483 5.32211 15.5711 8 17.0019V22.1629C8 22.5412 8.40393 22.7825 8.73705 22.6031L12 20.8462L15.263 22.6031C15.5961 22.7825 16 22.5412 16 22.1629V17.0019ZM15.6965 7.28242C16.0928 7.66707 16.1022 8.30017 15.7176 8.69648L11.8352 12.6965C11.6469 12.8905 11.388 13 11.1176 13C10.8473 13 10.5884 12.8905 10.4001 12.6965L8.28242 10.5147C7.89777 10.1183 7.90722 9.48525 8.30353 9.1006C8.69983 8.71595 9.33293 8.7254 9.71758 9.12171L11.1176 10.5642L14.2824 7.30353C14.6671 6.90722 15.3002 6.89777 15.6965 7.28242Z" fill="#313234"/>
</svg>

<svg xmlns="http://www.w3.org/2000/svg" width="24" height="24" fill="none" viewBox="0 0 24 24"><path fill="#313234" fill-rule="evenodd" d="M12 3a6.5 6.5 0 1 0 0 13 6.5 6.5 0 0 0 0-13m4 14.002a8.5 8.5 0 1 0-8 0v5.16a.5.5 0 0 0 .737.441L12 20.846l3.263 1.757a.5.5 0 0 0 .737-.44zm-.303-9.72a1 1 0 0 1 .02 1.414l-3.882 4a1 1 0 0 1-1.435 0l-2.118-2.181a1 1 0 0 1 1.436-1.393l1.4 1.442 3.164-3.26a1 1 0 0 1 1.415-.022" clip-rule="evenodd"/></svg>
